!!!OTL: KOMM WIR WOLLEN WANDERN
!!!ARE: Europa, Mitteleuropa, Deutschland
!!!SCT: K2446
!!!YEM: Copyright 1995, estate of Helmut Schaffrath.
**kern
*ICvox
*Ivox
*M2/4
*k[]
*C:
=1
{8G
8c
8c
8c
=2
8c
8A
4G}
=3
{4A
4B
=4
4c
8r}
{8G
=5
8c
8c
8c
8c
=6
8c
16B-
16A
8G
8r}
=7
{8A
8r
8A
8r
=8
8A
16G
16F
8E
8r}
=9
{8A
8c
8B
16A
16G#
=10
2A}
==
!!!AGN: Kinder - Lied, Tanz -, Lauf - Spiel
!! Modulierender Schluss
!!!ONB: ESAC (Essen Associative Code) Database: KINDER
!!!AMT: simple duple
!!!AIN: vox
!!!EED: Helmut Schaffrath
!!!EEV: 1.0
*-
